X: 4664
T: Boy In The Gap, The
R: reel
M: 4/4
K: Dmajor
|:D2FA de=cB|AGBd =cAGE|D2FA de=cB|A2GE EDD2:|
~f2 fg fedf|~e2 ef edcB|1 ABcd edcd|ea ~a2 ea ~a2:|2 ABcd e2 dc|~A2GE EDD2||
df~f2 dfff|ce~e2 ceee|df~f2 defg|a2ge fdde|
fdef dcAF|GdBG E2FE|D2FA de=cB|A2GE EDD2||

